.svelte-kit/output/client/library/social-蜻蜓 FM.svg

<svg width="48" height="48" fill="none" xmlns="http://www.w3.org/2000/svg"><rect x="6" y="6" width="36" height="36" rx="8" fill="#F53C3D"/><path d="M10 14a4 4 0 0 1 4-4h20a4 4 0 0 1 4 4v10a2 2 0 0 1-2 2H12a2 2 0 0 1-2-2V14Z" fill="#fff"/><path d="M10 17.5h9c2 0 1.5-5 2.5-5s.5 5 2.5 5 1.5-6.5 3-6.5 1 6.5 3 6.5h8v.5H10v-.5ZM10 18.5h9c2 0 1.5 5 2.5 5s.5-5 2.5-5 1.5 6.5 3 6.5 1-6.5 3-6.5h8V18H10v.5Z" fill="#F53C3D"/><path d="M15 29h18M15 38h18M11 32h26M11 35h26" stroke="#B92D2F" stroke-width="1.5" stroke-linecap="round"/></svg>

<svg width="48" height="48" viewBox="0 0 48 48" fill="none" xmlns="http://www.w3.org/2000/svg">
<rect x="6" y="6" width="36" height="36" rx="8" fill="#F53C3D"/>
<path d="M10 14C10 11.7909 11.7909 10 14 10H34C36.2091 10 38 11.7909 38 14V24C38 25.1046 37.1046 26 36 26H12C10.8954 26 10 25.1046 10 24V14Z" fill="white"/>
<path d="M10 17.5C10 17.5 18 17.5 19 17.5C21 17.5 20.5 12.5 21.5 12.5C22.5 12.5 22 17.5 24 17.5C26 17.5 25.5 11 27 11C28.5 11 28 17.5 30 17.5C31 17.5 38 17.5 38 17.5V18H10V17.5Z" fill="#F53C3D"/>
<path d="M10 18.5C10 18.5 18 18.5 19 18.5C21 18.5 20.5 23.5 21.5 23.5C22.5 23.5 22 18.5 24 18.5C26 18.5 25.5 25 27 25C28.5 25 28 18.5 30 18.5C31 18.5 38 18.5 38 18.5V18H10V18.5Z" fill="#F53C3D"/>
<path d="M15 29H33" stroke="#B92D2F" stroke-width="1.5" stroke-linecap="round"/>
<path d="M15 38H33" stroke="#B92D2F" stroke-width="1.5" stroke-linecap="round"/>
<path d="M11 32H37" stroke="#B92D2F" stroke-width="1.5" stroke-linecap="round"/>
<path d="M11 35H37" stroke="#B92D2F" stroke-width="1.5" stroke-linecap="round"/>
</svg>
